; generated by PrusaSlicer 2.1.1+win64 on 2020-05-20 at 21:56:43 UTC

; 

; external perimeters extrusion width = 0.45mm
; perimeters extrusion width = 0.55mm
; infill extrusion width = 0.45mm
; solid infill extrusion width = 0.45mm
; top infill extrusion width = 0.40mm
; first layer extrusion width = 0.42mm

M73 P0 R48
M73 Q0 S48
M201 X1000 Y1000 Z1000 E5000 ; sets maximum accelerations, mm/sec^2
M203 X200 Y200 Z12 E120 ; sets maximum feedrates, mm/sec
M204 P1250 R1250 T1250 ; sets acceleration (P, T) and retract acceleration (R), mm/sec^2
M205 X8.00 Y8.00 Z0.40 E1.50 ; sets the jerk limits, mm/sec
M205 S0 T0 ; sets the minimum extruding and travel feed rate, mm/sec
M862.3 P "MK3S" ; printer model check
M862.1 P0.4 ; nozzle diameter check
M115 U3.8.1 ; tell printer latest fw version
G90 ; use absolute coordinates
M83 ; extruder relative mode
M104 S215 ; set extruder temp
M140 S60 ; set bed temp
M190 S60 ; wait for bed temp
M109 S215 ; wait for extruder temp
G28 W ; home all without mesh bed level
G80 ; mesh bed leveling
G1 Y-3.0 F1000.0 ; go outside print area
G92 E0.0
G1 X60.0 E9.0 F1000.0 ; intro line
M73 Q0 S48
M73 P0 R48
G1 X100.0 E12.5 F1000.0 ; intro line
G92 E0.0
M221 S95
G21 ; set units to millimeters
G90 ; use absolute coordinates
M83 ; use relative distances for extrusion
M900 K30 ; Filament gcode
M106 S255
;BEFORE_LAYER_CHANGE
G92 E0.0
;0.2


G1 E-0.80000 F2100.00000
G1 Z0.600 F10800.000
;AFTER_LAYER_CHANGE
;0.2
G1 X66.644 Y57.877
G1 Z0.200
G1 E0.80000 F2100.00000
M204 S800
G1 F1200
G1 X67.411 Y57.763 E0.02429
G1 X93.100 Y57.762 E0.80547
G1 X93.679 Y57.828 E0.01826
G1 X94.203 Y57.986 E0.01719
G1 X95.241 Y58.617 E0.03808
G1 X96.072 Y59.536 E0.03884
G1 X96.838 Y60.865 E0.04809
G1 X97.474 Y62.457 E0.05375
G1 X98.146 Y64.793 E0.07622
G1 X98.721 Y67.558 E0.08856
G1 X99.193 Y70.699 E0.09959
G1 X99.560 Y74.162 E0.10917
G1 X99.848 Y78.589 E0.13911
G1 X99.946 Y81.685 E0.09711
G1 X99.946 Y86.336 E0.14584
G1 X99.772 Y90.913 E0.14359
G1 X99.498 Y94.558 E0.11463
G1 X99.110 Y97.965 E0.10751
G1 X98.619 Y101.029 E0.09730
G1 X87.766 Y149.369 E1.55339
G1 X87.562 Y149.997 E0.02071
G1 X87.059 Y150.843 E0.03085
G1 X86.369 Y151.508 E0.03005
G1 X85.682 Y151.913 E0.02499
G1 X84.793 Y152.184 E0.02915
G1 X84.177 Y152.237 E0.01937
G1 X75.731 Y152.185 E0.26482
G1 X74.736 Y151.866 E0.03278
G1 X73.845 Y151.257 E0.03381
G1 X73.171 Y150.421 E0.03369
G1 X72.774 Y149.454 E0.03278
G1 X62.245 Y102.692 E1.50290
G1 X61.694 Y99.854 E0.09064
G1 X61.241 Y96.631 E0.10204
G1 X60.843 Y92.396 E0.13335
G1 X60.612 Y87.880 E0.14179
G1 X60.554 Y83.224 E0.14599
G1 X60.671 Y78.596 E0.14515
G1 X60.959 Y74.162 E0.13933
G1 X61.407 Y70.085 E0.12859
G1 X61.903 Y66.992 E0.09823
G1 X62.770 Y63.320 E0.11829
G1 X63.347 Y61.639 E0.05575
G1 X63.860 Y60.505 E0.03902
G1 X64.464 Y59.514 E0.03637
G1 X65.170 Y58.714 E0.03346
G1 X65.888 Y58.189 E0.02789
G1 X66.589 Y57.900 E0.02377
M204 S1000
G1 F8640
G1 X67.411 Y57.763 E-0.19238
G1 X69.869 Y57.763 E-0.56762
G1 E-0.04000 F2100.00000
G1 Z0.800 F10800.000
G1 X90.988 Y83.617
G1 Z0.200
G1 E0.80000 F2100.00000
M204 S800
G1 F1200
G1 X90.798 Y83.739 E0.00707
G1 X90.484 Y83.845 E0.01038
G1 X89.855 Y83.845 E0.01972
G1 X89.517 Y83.730 E0.01120
G1 X89.234 Y83.512 E0.01120
G1 X89.049 Y83.236 E0.01043
G1 X88.973 Y83.022 E0.00711
G1 X88.941 Y82.691 E0.01043
G1 X89.015 Y82.377 E0.01012
G1 X89.212 Y81.962 E0.01439
G1 X89.431 Y81.598 E0.01332
G1 X89.685 Y81.257 E0.01332
G1 X89.971 Y80.943 E0.01332
G1 X90.286 Y80.658 E0.01332
G1 X90.628 Y80.405 E0.01332
G1 X90.992 Y80.187 E0.01332
G1 X91.377 Y80.006 E0.01332
G1 X91.777 Y79.863 E0.01332
G1 X92.189 Y79.760 E0.01332
G1 X92.609 Y79.697 E0.01332
G1 X93.028 Y79.677 E0.01313
G1 X93.458 Y79.697 E0.01350
G1 X93.879 Y79.760 E0.01334
G1 X94.291 Y79.863 E0.01332
G1 X94.691 Y80.006 E0.01332
G1 X95.075 Y80.187 E0.01332
G1 X95.440 Y80.405 E0.01332
G1 X95.782 Y80.658 E0.01332
G1 X96.097 Y80.943 E0.01332
G1 X96.383 Y81.257 E0.01332
G1 X96.636 Y81.598 E0.01332
G1 X96.856 Y81.962 E0.01332
G1 X97.053 Y82.377 E0.01439
G1 X97.121 Y82.667 E0.00935
G1 X97.117 Y82.894 E0.00711
G1 X97.032 Y83.215 E0.01043
G1 X96.834 Y83.512 E0.01120
G1 X96.551 Y83.730 E0.01120
G1 X96.212 Y83.845 E0.01120
G1 X95.583 Y83.845 E0.01972
G1 X95.270 Y83.739 E0.01038
G1 X95.080 Y83.617 E0.00708
G1 X95.123 Y84.010 E0.01240
G1 X95.078 Y84.419 E0.01290
G1 X95.410 Y84.227 E0.01203
G1 X95.713 Y84.177 E0.00962
G1 X96.236 Y84.192 E0.01639
G1 X96.551 Y84.299 E0.01043
G1 X96.834 Y84.517 E0.01120
G1 X97.032 Y84.814 E0.01120
G1 X97.117 Y85.135 E0.01043
G1 X97.121 Y85.362 E0.00711
G1 X97.053 Y85.652 E0.00935
G1 X96.856 Y86.067 E0.01439
G1 X96.636 Y86.431 E0.01332
G1 X96.383 Y86.772 E0.01332
G1 X96.097 Y87.086 E0.01332
G1 X95.786 Y87.367 E0.01313
G1 X95.440 Y87.623 E0.01350
G1 X95.075 Y87.842 E0.01334
G1 X94.697 Y88.021 E0.01313
G1 X94.291 Y88.166 E0.01350
G1 X93.879 Y88.269 E0.01334
G1 X93.458 Y88.331 E0.01332
G1 X93.034 Y88.352 E0.01332
G1 X92.609 Y88.331 E0.01332
G1 X92.189 Y88.269 E0.01332
G1 X91.777 Y88.166 E0.01332
G1 X91.377 Y88.023 E0.01332
G1 X90.992 Y87.842 E0.01332
G1 X90.628 Y87.624 E0.01332
G1 X90.286 Y87.371 E0.01332
G1 X89.971 Y87.086 E0.01332
G1 X89.685 Y86.772 E0.01332
G1 X89.431 Y86.431 E0.01332
G1 X89.212 Y86.067 E0.01332
G1 X89.015 Y85.652 E0.01439
G1 X88.941 Y85.339 E0.01010
G1 X88.972 Y85.015 E0.01018
G1 X89.048 Y84.796 E0.00729
G1 X89.234 Y84.517 E0.01052
G1 X89.517 Y84.299 E0.01117
G1 X89.824 Y84.194 E0.01018
G1 X90.013 Y84.177 E0.00594
G1 X90.465 Y84.185 E0.01420
G1 X90.679 Y84.239 E0.00690
G1 X90.988 Y84.412 E0.01109
G1 X90.945 Y84.014 E0.01252
G1 X90.974 Y83.675 E0.01066
M204 S1000
G1 F8640
G1 X90.798 Y83.739 E-0.04312
G1 X90.484 Y83.845 E-0.07643
G1 X89.855 Y83.845 E-0.14526
G1 X89.517 Y83.730 E-0.08245
G1 X89.234 Y83.512 E-0.08246
G1 X89.049 Y83.236 E-0.07680
G1 X88.973 Y83.022 E-0.05237
G1 X88.941 Y82.691 E-0.07680
G1 X89.015 Y82.377 E-0.07453
G1 X89.108 Y82.182 E-0.04978
G1 E-0.04000 F2100.00000
G1 Z0.800 F10800.000
G1 X90.543 Y84.593
G1 Z0.200
G1 E0.80000 F2100.00000
M204 S800
G1 F1200
G1 X90.739 Y84.698 E0.00698
G1 X90.893 Y84.861 E0.00704
G1 X91.081 Y85.211 E0.01245
G1 X91.239 Y85.436 E0.00863
G1 X91.422 Y85.641 E0.00862
G1 X91.626 Y85.819 E0.00848
G1 X91.856 Y85.978 E0.00876
G1 X92.099 Y86.105 E0.00861
G1 X92.357 Y86.202 E0.00862
G1 X92.624 Y86.267 E0.00862
G1 X92.896 Y86.300 E0.00862
G1 X93.171 Y86.300 E0.00862
G1 X93.444 Y86.267 E0.00862
G1 X93.711 Y86.202 E0.00862
G1 X93.964 Y86.106 E0.00848
G1 X94.212 Y85.978 E0.00876
G1 X94.439 Y85.822 E0.00861
G1 X94.645 Y85.641 E0.00862
G1 X94.829 Y85.436 E0.00862
G1 X94.988 Y85.208 E0.00874
G1 X95.232 Y84.788 E0.01524
G1 X95.336 Y84.694 E0.00440
G1 X95.533 Y84.589 E0.00698
G1 X95.744 Y84.554 E0.00671
G1 X96.042 Y84.554 E0.00936
G1 X96.158 Y84.564 E0.00365
G1 X96.370 Y84.636 E0.00701
G1 X96.555 Y84.778 E0.00729
G1 X96.684 Y84.971 E0.00729
G1 X96.741 Y85.187 E0.00701
G1 X96.743 Y85.321 E0.00419
G1 X96.695 Y85.527 E0.00663
G1 X96.523 Y85.888 E0.01254
G1 X96.323 Y86.220 E0.01216
G1 X96.091 Y86.532 E0.01216
G1 X95.830 Y86.819 E0.01216
G1 X95.547 Y87.075 E0.01198
G1 X95.231 Y87.309 E0.01234
G1 X94.898 Y87.509 E0.01217
G1 X94.552 Y87.672 E0.01198
G1 X94.182 Y87.805 E0.01234
G1 X93.805 Y87.899 E0.01217
G1 X93.421 Y87.956 E0.01216
G1 X93.034 Y87.975 E0.01216
G1 X92.646 Y87.956 E0.01216
G1 X92.263 Y87.899 E0.01216
G1 X91.886 Y87.805 E0.01216
G1 X91.521 Y87.674 E0.01216
G1 X91.170 Y87.509 E0.01216
G1 X90.837 Y87.310 E0.01216
G1 X90.525 Y87.079 E0.01216
G1 X90.237 Y86.819 E0.01216
G1 X89.976 Y86.532 E0.01216
G1 X89.745 Y86.220 E0.01216
G1 X89.545 Y85.888 E0.01216
G1 X89.373 Y85.527 E0.01254
G1 X89.323 Y85.313 E0.00690
G1 X89.343 Y85.096 E0.00683
G1 X89.388 Y84.965 E0.00436
G1 X89.513 Y84.778 E0.00705
G1 X89.697 Y84.636 E0.00728
G1 X89.903 Y84.565 E0.00683
G1 X90.026 Y84.554 E0.00387
G1 X90.416 Y84.562 E0.01221
G1 X90.484 Y84.579 E0.00223
M204 S1000
G1 X90.714 Y84.451 F10800.000
G1 X91.365 Y84.367
M204 S800
G1 F1200
G1 X91.323 Y84.014 E0.01114
G1 X91.344 Y83.747 E0.00842
G1 X91.407 Y83.485 E0.00842
G1 X91.507 Y83.245 E0.00818
G1 X91.650 Y83.009 E0.00865
G1 X91.825 Y82.804 E0.00844
G1 X92.029 Y82.630 E0.00842
G1 X92.259 Y82.490 E0.00842
G1 X92.507 Y82.387 E0.00842
G1 X92.768 Y82.325 E0.00842
G1 X93.028 Y82.304 E0.00818
G1 X93.303 Y82.325 E0.00866
G1 X93.565 Y82.388 E0.00844
G1 X93.813 Y82.491 E0.00842
G1 X94.035 Y82.628 E0.00818
G1 X94.245 Y82.807 E0.00866
G1 X94.420 Y83.012 E0.00843
G1 X94.560 Y83.241 E0.00842
G1 X94.662 Y83.489 E0.00842
G1 X94.724 Y83.751 E0.00841
G1 X94.744 Y84.010 E0.00817
G1 X94.724 Y84.278 E0.00842
G1 X94.659 Y84.547 E0.00866
G1 X94.559 Y84.788 E0.00818
G1 X94.420 Y85.017 E0.00842
G1 X94.246 Y85.222 E0.00842
G1 X94.041 Y85.397 E0.00843
G1 X93.806 Y85.541 E0.00866
G1 X93.565 Y85.641 E0.00818
G1 X93.304 Y85.704 E0.00842
G1 X93.036 Y85.725 E0.00842
G1 X92.768 Y85.704 E0.00844
G1 X92.499 Y85.639 E0.00866
G1 X92.258 Y85.539 E0.00818
G1 X92.029 Y85.399 E0.00842
G1 X91.825 Y85.225 E0.00842
G1 X91.650 Y85.020 E0.00844
G1 X91.507 Y84.784 E0.00865
G1 X91.407 Y84.543 E0.00818
G1 X91.379 Y84.426 E0.00380
M204 S1000
G1 X91.029 Y84.250 F10800.000
G1 F8640
G1 X91.323 Y84.014 E-0.09580
G1 X91.344 Y83.747 E-0.06203
G1 X91.407 Y83.485 E-0.06202
G1 X91.507 Y83.245 E-0.06021
G1 X91.650 Y83.009 E-0.06374
G1 X91.825 Y82.804 E-0.06214
G1 X92.029 Y82.630 E-0.06203
G1 X92.259 Y82.490 E-0.06203
G1 X92.507 Y82.387 E-0.06203
G1 X92.768 Y82.325 E-0.06200
G1 X93.028 Y82.304 E-0.06023
G1 X93.226 Y82.319 E-0.04575
G1 E-0.04000 F2100.00000
G1 Z0.800 F10800.000
G1 X90.745 Y83.325
G1 Z0.200
G1 E0.80000 F2100.00000
M204 S800
G1 F1200
G1 X90.633 Y83.396 E0.00417
G1 X90.422 Y83.468 E0.00698
G1 X89.918 Y83.468 E0.01583
G1 X89.697 Y83.393 E0.00729
G1 X89.513 Y83.251 E0.00729
G1 X89.389 Y83.065 E0.00701
G1 X89.344 Y82.939 E0.00419
G1 X89.323 Y82.717 E0.00701
G1 X89.373 Y82.502 E0.00690
G1 X89.545 Y82.141 E0.01254
G1 X89.745 Y81.808 E0.01216
G1 X89.976 Y81.497 E0.01216
G1 X90.237 Y81.210 E0.01216
G1 X90.525 Y80.950 E0.01216
G1 X90.837 Y80.719 E0.01216
G1 X91.170 Y80.520 E0.01216
G1 X91.521 Y80.355 E0.01216
G1 X91.886 Y80.224 E0.01216
G1 X92.263 Y80.130 E0.01216
G1 X92.646 Y80.073 E0.01216
G1 X93.028 Y80.054 E0.01198
G1 X93.421 Y80.073 E0.01234
G1 X93.805 Y80.130 E0.01217
G1 X94.181 Y80.224 E0.01216
G1 X94.547 Y80.355 E0.01216
G1 X94.898 Y80.520 E0.01216
G1 X95.231 Y80.719 E0.01216
G1 X95.542 Y80.950 E0.01216
G1 X95.830 Y81.210 E0.01216
G1 X96.091 Y81.497 E0.01216
G1 X96.323 Y81.808 E0.01216
G1 X96.523 Y82.141 E0.01216
G1 X96.695 Y82.502 E0.01254
G1 X96.743 Y82.708 E0.00663
G1 X96.741 Y82.842 E0.00419
G1 X96.684 Y83.058 E0.00701
G1 X96.555 Y83.251 E0.00729
G1 X96.370 Y83.393 E0.00729
G1 X96.150 Y83.468 E0.00729
G1 X95.645 Y83.468 E0.01583
G1 X95.434 Y83.396 E0.00698
G1 X95.323 Y83.325 E0.00417
G1 X95.175 Y83.168 E0.00676
G1 X94.986 Y82.818 E0.01245
G1 X94.829 Y82.593 E0.00863
G1 X94.645 Y82.388 E0.00862
G1 X94.439 Y82.206 E0.00862
G1 X94.212 Y82.051 E0.00862
G1 X93.968 Y81.924 E0.00862
G1 X93.711 Y81.827 E0.00862
G1 X93.448 Y81.763 E0.00848
G1 X93.171 Y81.729 E0.00876
G1 X92.896 Y81.729 E0.00861
G1 X92.624 Y81.762 E0.00862
G1 X92.357 Y81.827 E0.00862
G1 X92.104 Y81.923 E0.00848
G1 X91.856 Y82.051 E0.00876
G1 X91.629 Y82.206 E0.00861
G1 X91.422 Y82.388 E0.00862
G1 X91.239 Y82.593 E0.00862
G1 X91.081 Y82.818 E0.00863
G1 X90.893 Y83.168 E0.01245
G1 X90.786 Y83.281 E0.00488
M204 S1000
G1 X90.770 Y83.455 F10800.000
G1 F8640
G1 X90.633 Y83.396 E-0.04428
G1 X90.422 Y83.468 E-0.05141
G1 X89.918 Y83.468 E-0.11655
G1 X89.697 Y83.393 E-0.05368
G1 X89.513 Y83.251 E-0.05368
G1 X89.389 Y83.065 E-0.05165
G1 X89.344 Y82.939 E-0.03086
G1 X89.323 Y82.717 E-0.05165
G1 X89.373 Y82.502 E-0.05084
G1 X89.545 Y82.141 E-0.09238
G1 X89.745 Y81.808 E-0.08958
G1 X89.935 Y81.553 E-0.07343
G1 E-0.04000 F2100.00000
G1 Z0.800 F10800.000
G1 X89.269 Y84.014
G1 Z0.200
G1 E0.80000 F2100.00000
M204 S800
G1 F1200
G1 X89.096 Y84.147 E0.00681
G1 X89.112 Y83.894 E0.00795
G1 X89.221 Y83.978 E0.00433
M204 S1000
G1 F8640
G1 X89.096 Y84.147 E-0.04846
G1 X89.112 Y83.894 E-0.05851
G1 X89.221 Y83.978 E-0.03186
G1 E-0.66117 F2100.00000
G1 Z0.800 F10800.000
G1 X90.151 Y89.529
G1 Z0.200
G1 E0.80000 F2100.00000
M204 S800
G1 F1200
G1 X90.655 Y89.768 E0.01750
G1 X91.230 Y89.973 E0.01912
G1 X91.821 Y90.121 E0.01912
G1 X92.425 Y90.210 E0.01912
G1 X93.034 Y90.240 E0.01912
G1 X93.643 Y90.210 E0.01912
G1 X94.246 Y90.121 E0.01912
G1 X94.840 Y89.972 E0.01918
G1 X95.155 Y89.859 E0.01049
G1 X95.027 Y92.069 E0.06939
G1 X94.791 Y94.795 E0.08582
G1 X94.491 Y97.341 E0.08036
G1 X94.229 Y99.086 E0.05534
G1 X93.833 Y101.187 E0.06703
G1 X93.621 Y102.120 E0.03001
G1 X93.401 Y102.968 E0.02746
G1 X93.176 Y103.724 E0.02472
G1 X92.948 Y104.390 E0.02207
G1 X92.386 Y105.831 E0.04853
G1 X91.529 Y108.137 E0.07711
G1 X90.726 Y110.472 E0.07741
G1 X89.981 Y112.818 E0.07718
G1 X89.625 Y114.015 E0.03918
G1 X88.965 Y116.387 E0.07719
G1 X88.363 Y118.774 E0.07718
G1 X88.079 Y119.991 E0.03917
G1 X87.564 Y122.396 E0.07714
G1 X86.963 Y125.553 E0.10075
G1 X85.487 Y133.720 E0.26021
G1 X84.933 Y133.224 E0.02330
G1 X84.640 Y133.007 E0.01144
G1 X85.613 Y110.276 E0.71336
G1 X85.640 Y109.167 E0.03478
G1 X85.628 Y108.036 E0.03544
G1 X85.584 Y107.068 E0.03040
G1 X86.507 Y106.803 E0.03010
G1 X87.392 Y106.049 E0.03643
G1 X87.810 Y105.146 E0.03122
G1 X89.015 Y98.207 E0.22081
G1 X89.368 Y95.898 E0.07324
G1 X89.684 Y93.590 E0.07305
G1 X89.966 Y91.277 E0.07306
G1 X90.144 Y89.589 E0.05322
M204 S1000
G1 X89.837 Y88.908 F10800.000
M204 S800
G1 F1200
G1 X90.282 Y89.174 E0.01623
G1 X90.800 Y89.419 E0.01796
G1 X91.339 Y89.611 E0.01796
G1 X91.895 Y89.750 E0.01796
G1 X92.462 Y89.834 E0.01796
G1 X93.034 Y89.862 E0.01796
G1 X93.606 Y89.834 E0.01796
G1 X94.173 Y89.750 E0.01796
G1 X94.730 Y89.611 E0.01801
G1 X95.275 Y89.416 E0.01814
G1 X95.566 Y89.278 E0.01011
G1 X95.403 Y92.096 E0.08849
G1 X95.167 Y94.834 E0.08617
G1 X94.864 Y97.391 E0.08073
G1 X94.601 Y99.147 E0.05568
G1 X94.407 Y100.245 E0.03495
G1 X94.202 Y101.266 E0.03266
G1 X93.987 Y102.209 E0.03034
G1 X93.764 Y103.069 E0.02784
G1 X93.535 Y103.838 E0.02517
G1 X93.302 Y104.519 E0.02256
G1 X92.738 Y105.966 E0.04868
G1 X91.884 Y108.264 E0.07688
G1 X91.084 Y110.590 E0.07713
G1 X90.342 Y112.929 E0.07693
G1 X89.987 Y114.120 E0.03897
G1 X89.329 Y116.484 E0.07694
G1 X88.729 Y118.863 E0.07693
G1 X88.447 Y120.073 E0.03896
G1 X87.933 Y122.471 E0.07690
G1 X87.334 Y125.622 E0.10056
G1 X85.723 Y134.536 E0.28403
G1 X85.579 Y134.359 E0.00715
G1 X85.153 Y133.917 E0.01926
G1 X84.697 Y133.518 E0.01900
G1 X84.246 Y133.183 E0.01760
G1 X85.236 Y110.263 E0.71932
G1 X85.263 Y109.164 E0.03447
G1 X85.251 Y108.047 E0.03503
G1 X85.185 Y106.725 E0.04151
G1 X85.336 Y106.747 E0.00480
G1 X86.324 Y106.463 E0.03224
G1 X87.084 Y105.816 E0.03128
G1 X87.447 Y105.033 E0.02707
G1 X88.643 Y98.147 E0.21913
G1 X88.994 Y95.844 E0.07303
G1 X89.310 Y93.542 E0.07287
G1 X89.591 Y91.234 E0.07287
G1 X89.831 Y88.968 E0.07146
M204 S1000
G1 X89.523 Y88.206 F10800.000
M204 S800
G1 F1200
G1 X89.999 Y88.566 E0.01873
G1 X90.459 Y88.841 E0.01680
G1 X90.944 Y89.070 E0.01680
G1 X91.449 Y89.250 E0.01680
G1 X91.969 Y89.380 E0.01680
G1 X92.499 Y89.459 E0.01680
G1 X93.034 Y89.485 E0.01680
G1 X93.569 Y89.459 E0.01680
G1 X94.099 Y89.380 E0.01680
G1 X94.620 Y89.250 E0.01684
G1 X95.130 Y89.067 E0.01698
G1 X95.608 Y88.841 E0.01658
G1 X95.965 Y88.628 E0.01304
G1 X95.946 Y89.236 E0.01910
G1 X95.779 Y92.123 E0.09065
G1 X95.542 Y94.872 E0.08652
G1 X95.238 Y97.441 E0.08110
G1 X94.973 Y99.208 E0.05602
G1 X94.778 Y100.314 E0.03524
G1 X94.571 Y101.345 E0.03295
G1 X94.353 Y102.299 E0.03067
G1 X94.127 Y103.170 E0.02823
G1 X93.895 Y103.953 E0.02562
G1 X93.656 Y104.649 E0.02305
G1 X93.090 Y106.100 E0.04883
G1 X92.240 Y108.391 E0.07664
G1 X91.442 Y110.708 E0.07684
G1 X90.702 Y113.039 E0.07668
G1 X90.349 Y114.224 E0.03875
G1 X89.694 Y116.581 E0.07669
G1 X89.096 Y118.952 E0.07668
G1 X88.815 Y120.155 E0.03875
G1 X88.303 Y122.546 E0.07665
G1 X87.705 Y125.691 E0.10037
G1 X85.937 Y135.469 E0.31155
G1 X85.662 Y135.061 E0.01543
G1 X85.296 Y134.609 E0.01823
G1 X84.893 Y134.190 E0.01823
G1 X84.460 Y133.812 E0.01802
